X:1
T:Title
%%score { 1 | 2 }
L:1/8
M:2/4
K:G
V:1 treble nm="Grand Piano"
V:2 bass 
V:1
 z2 z[Q:1/4=100] [B,D] | [DGB]2 [CFA]2 | [B,EG]3 [A,^DF] | [G,E][A,CF] [G,DG][EA] | %4
 [DB]2 [DA][FA] | [GB]2 [FA]2 | [GB]2 [G^c]2 |[M:3/8] [Fd]3 |[M:1/8] [DFc] |[M:2/4] [DGB]2 [CFA]2 | %10
 [B,EG]3 [A,^DF] | [G,E][A,CF] [G,DG][EA] | [DB]2 [DA][Cc] | [DB]2 [CEA]2 | [B,DG]2 [A,DF]2 | %15
[M:3/8] [B,DG]3 |] %16
V:2
 z2 z G, | G,2 D,2 | E,3 B,, | C,A,, B,,[C,G,] | [D,G,]2 [D,F,][D,D] | [G,D]2 [D,D]2 | %6
 [G,D]2 [E,A,]2 |[M:3/8] [D,A,]3 |[M:1/8] D, |[M:2/4] G,2 D,2 | E,3 B,, | C,A,, B,,[C,G,] | %12
 [D,G,]2 [D,F,][A,,A,] | [B,,G,]2 C,2 | D,2 D,2 |[M:3/8] G,,3 |] %16

